Numix-GalliumOS/64/actions/zoom-fit-height.svg

<?xml version="1.0" encoding="UTF-8" standalone="no"?>
<svg
   xmlns:dc="http://purl.org/dc/elements/1.1/"
   xmlns:cc="http://creativecommons.org/ns#"
   xmlns:rdf="http://www.w3.org/1999/02/22-rdf-syntax-ns#"
   xmlns:svg="http://www.w3.org/2000/svg"
   xmlns="http://www.w3.org/2000/svg"
   xmlns:sodipodi="http://sodipodi.sourceforge.net/DTD/sodipodi-0.dtd"
   xmlns:inkscape="http://www.inkscape.org/namespaces/inkscape"
   width="64"
   height="64"
   viewBox="0 0 64 64"
   id="svg2"
   version="1.1"
   inkscape:version="0.91 r13725"
   sodipodi:docname="zoom-fit-height.svg">
  <metadata
     id="metadata16">
    <rdf:RDF>
      <cc:Work
         rdf:about="">
        <dc:format>image/svg+xml</dc:format>
        <dc:type
           rdf:resource="http://purl.org/dc/dcmitype/StillImage" />
        <dc:title></dc:title>
      </cc:Work>
    </rdf:RDF>
  </metadata>
  <defs
     id="defs14" />
  <sodipodi:namedview
     pagecolor="#ffffff"
     bordercolor="#666666"
     borderopacity="1"
     objecttolerance="10"
     gridtolerance="10"
     guidetolerance="10"
     inkscape:pageopacity="0"
     inkscape:pageshadow="2"
     inkscape:window-width="1366"
     inkscape:window-height="704"
     id="namedview12"
     showgrid="true"
     inkscape:zoom="11.313708"
     inkscape:cx="18.204672"
     inkscape:cy="32"
     inkscape:window-x="0"
     inkscape:window-y="27"
     inkscape:window-maximized="1"
     inkscape:current-layer="svg2">
    <inkscape:grid
       type="xygrid"
       id="grid4144" />
  </sodipodi:namedview>
  <path
     style="fill:#268bd2"
     d="M 12.617188 4 L 51.382812 4 C 56.140625 4 60 7.855469 60 12.613281 L 60 51.382812 C 60 56.140625 56.140625 60 51.382812 60 L 12.617188 60 C 7.859375 60 4 56.140625 4 51.382812 L 4 12.613281 C 4 7.855469 7.859375 4 12.617188 4 Z "
     id="path4" />
  <g
     id="g4150"
     transform="matrix(0,1,-1,0,64,0)">
    <g
       id="g6"
       style="fill:#ffffff;fill-opacity:0.90200004">
      <path
         id="path10"
         d="m 20,20 0,24 24,0 0,-24 z m 4,4 16,0 0,16 -16,0 z"
         inkscape:connector-curvature="0" />
    </g>
    <rect
       y="12"
       x="12"
       height="40"
       width="4"
       id="rect4146"
       style="opacity:1;fill:#ffffff;fill-opacity:0.90196078;stroke:none;stroke-width:1.5;stroke-linecap:round;stroke-linejoin:round;stroke-miterlimit:4;stroke-dasharray:none;stroke-opacity:1" />
    <rect
       style="opacity:1;fill:#ffffff;fill-opacity:0.90196078;stroke:none;stroke-width:1.5;stroke-linecap:round;stroke-linejoin:round;stroke-miterlimit:4;stroke-dasharray:none;stroke-opacity:1"
       id="rect4148"
       width="4"
       height="40"
       x="48"
       y="12" />
  </g>
</svg>

<svg xmlns="http://www.w3.org/2000/svg" viewBox="0 0 64 64">
 <path d="m 12.617 4 l 38.766 0 c 4.758 0 8.617 3.855 8.617 8.613 l 0 38.77 c 0 4.758 -3.859 8.617 -8.617 8.617 l -38.766 0 c -4.758 0 -8.617 -3.859 -8.617 -8.617 l 0 -38.77 c 0 -4.758 3.859 -8.613 8.617 -8.613 Z" style="fill:#268bd2"/>
 <g transform="matrix(0,1,-1,0,64,0)">
  <g style="fill:#fff;fill-opacity:0.902">
   <path d="m 20 20 0 24 24 0 0 -24 z m 4 4 16 0 0 16 -16 0 z"/>
  </g>
  <rect y="12" x="12" height="40" width="4" style="fill:#fff;opacity:1;fill-opacity:0.902;stroke:none"/>
  <rect width="4" height="40" x="48" y="12" style="fill:#fff;opacity:1;fill-opacity:0.902;stroke:none"/>
 </g>
</svg>
